X:0735
T:Miss Rabina Boswell's Reel.
M:C|
L:1/8
Q:1/2=104
I: :: :|
Z:Jack Campin * www.campin.me.uk * 2009
K:G
D|G2Gd BGdB|gd e/d/c/B/ cAAd |BG GF/G/ DGBd |cAdc BGG:|
d|gbdg egdg|cgBg        Aaac'|bgdg     egfa |gedc BGGd|
  gbdg cgBg|dgbg        afc'a|bgdg     ec'ba|gedc BGG|]
<end>
<start>
